X:19
T:Wild Irishman, The
R:reel
D:Stockton's Wing.
Z:id:hn-reel-19
M:C|
K:D
d2fd gefe|dfed cdec|d2fd gefd|g2fe dcBc|
d2fd gefe|dfed cdeg|~f3d ~g3e|cdec dcdf||
edcB A2cA|eA~A2 eAfA|edcB ~A3e|fgfe dcdf|
edcB ABcd|eA~A2 eAfA|edcB ~A3e|fgfe d3c||
P:Variations:
d2fd gefe|dfed cdec|d2fd gefd|gefe dcBc|
d2fd gefe|dfed cded|~f3d ~g3e|cBce ~d3f||
edcB A2 (3cBA|eAcA ~e3f|edcB A2de|fage dcdf|
edcB ABcd|eA~A2 eAfA|edcB A2de|fage d3c||
<end>
<start>
